X:1
T:Title
L:1/8
M:6/8
K:Bb
V:1 treble nm="Grand Piano"
V:1
 z3 z2 D | B3 B2 B | B3 G2 D | E3 E2 F | E3- E2 C | A3 A2 A | A3 F2 C | D3 D2 E | D3- D2 D | %9
 G3 G2 G | G3 E2 G | A3 A2 G | A3 ^F2 D | c3 c2 B | c3 A2 D | d3 d2 c | d6- | d3- d2 D | %18
 D2 E F2 G | A2 B A2 G | A3 F2 E | D3- D2 D | D2 E ^F2 G | A3 A2 B | c3 B2 A | A3- A2 D | d3 B2 G | %27
 c3 A2 ^F | B3 G2 E | A3- A2 G | G3 G2 G | G3 F2 G | B3 A2 G | G6 |] %34

